Origami/48x48/apps/kube.svg

<svg width="48" height="48" version="1" xmlns="http://www.w3.org/2000/svg">
 <rect transform="matrix(0,-1,-1,0,0,0)" x="-44" y="-44" width="40" height="40" rx="2" ry="2" style="fill:#ef5a30"/>
 <path d="m12 11v28h6v-5.400391l3 5.400391h7l-5-9 5-9h-7l-3 5.400391v-15.400391h-6zm18 10-5 9 5 9h7l-5-9 5-9h-7z" style="opacity:.2"/>
 <path d="m6 4c-1.108 0-2 0.892-2 2v1c0-1.108 0.892-2 2-2h36c1.108 0 2 0.892 2 2v-1c0-1.108-0.892-2-2-2h-36z" style="fill:#ffffff;opacity:.2"/>
 <path d="m6 45c-1.108 0-2-0.892-2-2v-1c0 1.108 0.892 2 2 2h36c1.108 0 2-0.892 2-2v1c0 1.108-0.892 2-2 2h-36z" style="opacity:.2"/>
 <path d="m18 9.9999999h-6v28h6z" style="fill:#ffffff"/>
 <path d="m21 20-5 9 5 9h7l-5-9 5-9z" style="fill:#ffffff"/>
 <path d="m30 20-5 9 5 9h7l-5-9 5-9z" style="fill:#ffffff"/>
</svg>

<svg xmlns="http://www.w3.org/2000/svg" width="48" height="48" version="1">
 <rect style="fill:#ef5a30" width="40" height="40" x="-44" y="-44" rx="2" ry="2" transform="matrix(0,-1,-1,0,0,0)"/>
 <path style="opacity:0.2" d="m 12,11 0,28 6,0 0,-5.400391 L 21,39 l 7,0 -5,-9 5,-9 -7,0 -3,5.400391 L 18,11 12,11 Z m 18,10 -5,9 5,9 7,0 -5,-9 5,-9 -7,0 z"/>
 <path style="opacity:0.2;fill:#ffffff" d="M 6,4 C 4.892,4 4,4.892 4,6 L 4,7 C 4,5.892 4.892,5 6,5 l 36,0 c 1.108,0 2,0.892 2,2 L 44,6 C 44,4.892 43.108,4 42,4 L 6,4 Z"/>
 <path style="opacity:0.2" d="M 6,45 C 4.892,45 4,44.108 4,43 l 0,-1 c 0,1.108 0.892,2 2,2 l 36,0 c 1.108,0 2,-0.892 2,-2 l 0,1 c 0,1.108 -0.892,2 -2,2 L 6,45 Z"/>
 <path style="fill:#ffffff" d="m 18,9.9999999 -6,0 L 12,38 l 6,0 z"/>
 <path style="fill:#ffffff" d="m 21,20 -5,9 5,9 7,0 -5,-9 5,-9 z"/>
 <path style="fill:#ffffff" d="m 30,20 -5,9 5,9 7,0 -5,-9 5,-9 z"/>
</svg>
